!!!OTL: My Blue Heaven
!!!COM: Donaldwon, Walter
!!!LYR: Whiting, George
!!!LAR: Frey, Hugo
!! "My Blue Heaven" by Walter Donaldson, lyrics by George Whiting
!! from "Barbershop Memories" compiled and arranged by Hugo Frey
!! copyright 1975 by EMI Music Publ. Ltd.; pp. 18-19; alla breve; in E- major
**kern	**kern	**kern	**kern
*Ivox	*Ivox	*Ivox	*Ivox
*M2/2	*M2/2	*M2/2	*M2/2
*E-:	*E-:	*E-:	*E-:
4r	4r	4G	4r
2r	2r	8B-	2r
.	.	8c	.
.	.	4e-	.
=1	=1	=1	=1
4r	4r	[1c	4r
4E-	4G	.	4B-
8E-	8G	.	8B-
8E-	8G	.	8B-
4E-	4G	.	4B-
=2	=2	=2	=2
4E-	4G	4c]	4B-
4r	4r	4E-	4r
2r	2r	8G	2r
.	.	8B-	.
.	.	4c	.
=3	=3	=3	=3
4r	4r	[1B-	4r
4G	4c	.	4e-
8G	8c	.	8e-
8G	8c	.	8e-
4G	4c	.	4e-
=4	=4	=4	=4
4E-	4G	4B-]	4c
4BB-	4r	4r	4r
8C	2r	2r	2r
8E-	.	.	.
4G	.	.	.
=5	=5	=5	=5
1F	8r	8r	8r
.	8An	8c	8e-
.	4A	4c	4e-
.	4A	4c	4e-
.	4A	4c	4e-
=6	=6	=6	=6
1G	8r	8r	8r
.	8A-	8B-	8d
.	4A-	4B-	4d
.	4A-	4B-	4d
.	4A-	4B-	4d
=7	=7	=7	=7
4F	4A-	4B-	4d
[2.E-	2G	2B-	2e-
.	{4c-	[4e-	{4g-
=8	=8	=8	=8
4E-]	4B-}	4e-]	4gn}
4r	4r	4G	4r
2r	2r	8B-	2r
.	.	8c	.
.	.	4e-	.
=9	=9	=9	=9
4r	4r	[1c	4r
4E-	4G	.	4B-
8E-	8G	.	8B-
8E-	8G	.	8B-
4E-	4G	.	4B-
=10	=10	=10	=10
4E-	4G	4c]	4B-
4r	4r	4E-	4r
2r	2r	8G	2r
.	.	8B-	.
.	.	4c	.
=11	=11	=11	=11
4r	4r	[1B-	4r
4G	4c	.	4e-
8G	8c	.	8e-
8G	8c	.	8e-
4G	4c	.	4e-
=12	=12	=12	=12
4E-	4G	4B-]	4c
4BB-	4r	4r	4r
8C	2r	2r	2r
8E-	.	.	.
4G	.	.	.
=13	=13	=13	=13
1F	8r	8r	8r
.	8An	8c	8e-
.	4A	4c	4e-
.	4A	4c	4e-
.	4A	4c	4e-
=14	=14	=14	=14
1G	8r	8r	8r
.	8A-	8B-	8d
.	4A-	4B-	4d
.	4A-	4B-	4d
.	4A-	4B-	4d
=15	=15	=15	=15
4F	4A-	4B-	4d
[2.E-	2G	2B-	2e-
.	{4A-	{4c	[4e-
=16	=16	=16	=16
4E-]	4G}	4B-}	4e-]
4F#	4An	4e-	4e-
4G	4B-	4e-	4B-
4E-	4G	4e-	4Bn
=17	=17	=17	=17
4AA-	4E-	4e-	4c
4AA-	4E-	4d	4B-
4AA-	4E-	4d	4B-
4C	4E-	4c	4A-
=18	=18	=18	=18
[4C	{4A-	{4c	[4en
4C]	4G}	4B-}	4e]
4C	4G	4B-	4e
4C	4A-	4c	4e
=19	=19	=19	=19
4G	4c	4B-	4en
4F	4c	4A-	4f
4F	4A-	[2c	4f
4A-	4c	.	4f
=20	=20	=20	=20
4G	4B-	2c_	4en
4A-	4c	.	4f
4F	4A-	4c]	4c
4r	4r	4d	4r
=21	=21	=21	=21
4BB-	4A-	4d	4f
4BB-	4A-	4c	4e-
4BB-	4A-	4c	4e-
4BB-	4G	4B-	4d
=22	=22	=22	=22
4BB-	4G	4B-	4d
4BB-	4F	4A-	4d
4BB-	4F	4A-	4d
4BB-	4G	4B-	4d
=23	=23	=23	=23
4E-	4c	4A-	4e-
4E-	4B-	4G	4e-
4E-	[2G	[2B-	[2e-
{4BB-	.	.	.
=24	=24	=24	=24
4E-}	4G]	4B-]	4e-]
4BB-	4E-	4G	4e-
8E-	8G	8B-	8e-
8E-	8G	8c	8e-
4E-	4B-	4e-	4g
=25	=25	=25	=25
4E-	4B-	[1c	4g
4D	4B-	.	4f#
4E-	[2B-	.	[2g
4C	.	.	.
=26	=26	=26	=26
4BB-	4B-]	4c]	4g]
4BB-	4G	4E-	4B-
8E-	8G	8G	8c
8E-	8G	8B-	8e-
4E-	4A-	4c	4e-
=27	=27	=27	=27
4E-	4G	[1B-	4e-
4D	4B-	.	4f#
4E-	[2B-	.	[2g
4C	.	.	.
=28	=28	=28	=28
4BB-	4B-]	4B-]	4g]
4E-	4G	4B-	4B-
8E-	8G	8B-	8c
8E-	8G	8B-	8e-
4D-	4B-	4e-	4g
=29	=29	=29	=29
{2.C	1An	1e-	{2.f
4C-}	.	.	4f#}
=30	=30	=30	=30
1BB-	1A-	1d	1g
=31	=31	=31	=31
4E-	4A-	4c	4f
{2.E-	{2.G	{2.B-	{2.e-
=32	=32	=32	=32
1B-};	1c};	1e-};	1g};
==	==	==	==
*-	*-	*-	*-
